svgs/regular/truck-tow.svg

<svg xmlns="http://www.w3.org/2000/svg" viewBox="0 0 640 512"><!--! Font Awesome Pro 6.4.2 by @fontawesome - https://fontawesome.com License - https://fontawesome.com/license (Commercial License) Copyright 2023 Fonticons, Inc. --><path d="M96 64v96c0 26.5-21.5 48-48 48s-48-21.5-48-48V144c0-8.8 7.2-16 16-16s16 7.2 16 16v16c0 8.8 7.2 16 16 16s16-7.2 16-16V32C64 20.2 70.4 9.8 80 4.3C84.7 1.6 90.2 0 96 0h21.7 28c9.1 0 17.8 3.9 23.9 10.7L373.3 240H384V152c0-30.9 25.1-56 56-56h50.1c20.9 0 40.7 9.1 54.4 24.8l81.8 94.4c8.8 10.2 13.7 23.2 13.7 36.7V360c0 30.9-25.1 56-56 56h-8c0 53-43 96-96 96s-96-43-96-96H256c0 53-43 96-96 96s-96-43-96-96H56c-30.9 0-56-25.1-56-56V296c0-30.9 25.1-56 56-56H184L96 64zM243.2 368H396.8c16.6-28.7 47.6-48 83.2-48s66.6 19.3 83.2 48H584c4.4 0 8-3.6 8-8V288H432 416 384 351.8 208 56c-4.4 0-8 3.6-8 8v64c0 4.4 3.6 8 8 8H76.8c16.6-28.7 47.6-48 83.2-48s66.6 19.3 83.2 48zM145.8 56.3L237.7 240h71.4L145.8 56.3zM584.2 240l-76-87.7c-4.6-5.3-11.2-8.3-18.1-8.3H440c-4.4 0-8 3.6-8 8v88H584.2zM208 416a48 48 0 1 0 -96 0 48 48 0 1 0 96 0zm272 48a48 48 0 1 0 0-96 48 48 0 1 0 0 96z"/></svg>

<svg xmlns="http://www.w3.org/2000/svg" viewBox="0 0 640 512"><!--! Font Awesome Pro 6.1.1 by @fontawesome - https://fontawesome.com License - https://fontawesome.com/license (Commercial License) Copyright 2022 Fonticons, Inc. --><path d="M96 64V160C96 186.5 74.51 208 48 208C21.49 208 .0003 186.5 .0003 160V144C.0003 135.2 7.164 128 16 128C24.84 128 32 135.2 32 144V160C32 168.8 39.16 176 48 176C56.84 176 64 168.8 64 160V32C64 20.16 70.44 9.814 80 4.281C84.71 1.558 90.17 0 96 0H145.6C154.8 0 163.5 3.909 169.5 10.74L373.3 240H384V152C384 121.1 409.1 96 440 96H490.1C510.1 96 530.8 105.1 544.5 120.8L626.3 215.3C635.1 225.4 640 238.5 640 251.9V360C640 390.9 614.9 416 584 416H576C576 469 533 512 480 512C426.1 512 384 469 384 416H256C256 469 213 512 160 512C106.1 512 64 469 64 416H56C25.07 416 0 390.9 0 360V296C0 265.1 25.07 240 56 240H184L96 64zM243.2 368H396.8C413.4 339.3 444.5 320 480 320C515.5 320 546.6 339.3 563.2 368H584C588.4 368 592 364.4 592 360V288H56C51.58 288 48 291.6 48 296V360C48 364.4 51.58 368 56 368H76.84C93.44 339.3 124.5 320 160 320C195.5 320 226.6 339.3 243.2 368H243.2zM237.7 240H309.1L145.8 56.28L237.7 240zM508.2 152.3C503.7 147 497 144 490.1 144H440C435.6 144 432 147.6 432 152V240H584.2L508.2 152.3zM160 368C133.5 368 112 389.5 112 416C112 442.5 133.5 464 160 464C186.5 464 208 442.5 208 416C208 389.5 186.5 368 160 368zM480 464C506.5 464 528 442.5 528 416C528 389.5 506.5 368 480 368C453.5 368 432 389.5 432 416C432 442.5 453.5 464 480 464z"/></svg>
